pully_gear_ratio_changer/pully.svg

<?xml version="1.0" encoding="UTF-8" standalone="no"?>
<svg
   xmlns:dc="http://purl.org/dc/elements/1.1/"
   xmlns:cc="http://creativecommons.org/ns#"
   xmlns:rdf="http://www.w3.org/1999/02/22-rdf-syntax-ns#"
   xmlns:svg="http://www.w3.org/2000/svg"
   xmlns="http://www.w3.org/2000/svg"
   xmlns:sodipodi="http://sodipodi.sourceforge.net/DTD/sodipodi-0.dtd"
   xmlns:inkscape="http://www.inkscape.org/namespaces/inkscape"
   sodipodi:docname="pully.svg"
   inkscape:version="0.92.3 (2405546, 2018-03-11)"
   id="svg8"
   version="1.1"
   viewBox="0 0 210 297"
   height="297mm"
   width="210mm">
  <defs
     id="defs2" />
  <sodipodi:namedview
     inkscape:document-rotation="0"
     inkscape:window-maximized="1"
     inkscape:window-y="-16"
     inkscape:window-x="2609"
     inkscape:window-height="2930"
     inkscape:window-width="5486"
     showgrid="false"
     inkscape:current-layer="layer1"
     inkscape:document-units="mm"
     inkscape:cy="-3.036748"
     inkscape:cx="-2.3196886"
     inkscape:zoom="64"
     inkscape:pageshadow="2"
     inkscape:pageopacity="0.0"
     borderopacity="1.0"
     bordercolor="#666666"
     pagecolor="#ffffff"
     id="base" />
  <metadata
     id="metadata5">
    <rdf:RDF>
      <cc:Work
         rdf:about="">
        <dc:format>image/svg+xml</dc:format>
        <dc:type
           rdf:resource="http://purl.org/dc/dcmitype/StillImage" />
        <dc:title />
      </cc:Work>
    </rdf:RDF>
  </metadata>
  <g
     id="layer1"
     inkscape:groupmode="layer"
     inkscape:label="Layer 1">
    <path
       style="opacity:0.53500001;fill:#5f8bd3;fill-opacity:1;fill-rule:nonzero;stroke:none;stroke-width:1.08872712;stroke-miterlimit:4;stroke-dasharray:none;stroke-opacity:1"
       d="m 0,1116.8516 v 5.6679 c 0.0014652,-0.097 0.00667741,-0.1942 0.015625,-0.291 0.0040434,-0.054 0.009253,-0.1082 0.015625,-0.1621 v -0 c 0.0030911,-0.02 0.0063464,-0.04 0.0097656,-0.061 0.0062298,-0.048 0.01339257,-0.096 0.02148438,-0.1445 0.0097974,-0.056 0.02086793,-0.1123 0.03320312,-0.168 0.15364051,-0.6812 0.49301493,-1.3065 0.98046878,-1.8066 0.2253032,-0.2313 0.4793253,-0.4328 0.7558593,-0.5996 0.019425,-0.012 0.038957,-0.024 0.058594,-0.035 h 0.00195 c 0.3772843,-0.2189 4.5683722,-0.3711 4.9975007,-0.4494 0.4230998,-0.3585 0.6683381,-0.8854 0.6689764,-1.44 -9.03e-5,-0.1723 -0.025246,-0.3443 -0.071811,-0.5102 z m 0,5.6679 v 5.668 0 h 1.3457031 l 6.1415411,-5e-4 c 0.046755,-0.1666 0.071912,-0.3372 0.071811,-0.5102 -0.00105,-0.5559 -0.2476941,-1.0856 -0.6727559,-1.4438 -0.4469668,-0.081 -4.6545733,-0.2403 -5.0445024,-0.4733 -0.00326,-0 -0.00651,-0 -0.00977,-0.01 -0.00326,-0 -0.00651,-0 -0.00977,-0.01 -0.4364821,-0.2657 -0.8145424,-0.6172 -1.1113281,-1.0332 -0.0736376,-0.1026 -0.14208283,-0.2089 -0.20507812,-0.3184 -0.0676157,-0.1171 -0.12890174,-0.2377 -0.18359376,-0.3613 -0.0949568,-0.2159 -0.16950063,-0.4401 -0.22265624,-0.6699 -0.0013161,-0.01 -0.0026182,-0.012 -0.0039063,-0.018 -0.0013266,-0.01 -0.0026286,-0.016 -0.0039062,-0.023 -0.02352471,-0.1066 -0.04242263,-0.2141 -0.05664063,-0.3223 -0.0013403,-0.01 -0.0026424,-0.019 -0.0039063,-0.029 -0.0013698,-0.013 -0.0026719,-0.026 -0.0039063,-0.039 C 0.01058206,1122.7974 0.0014536,1122.6586 0,1122.5195 Z"
       transform="scale(0.26458333)"
       id="rect827"
       inkscape:connector-curvature="0"
       sodipodi:nodetypes="cccccccccccccccccccccccccccccccccccc" />
  </g>
</svg>

<?xml version="1.0" encoding="UTF-8" standalone="no"?>
<svg
   xmlns:dc="http://purl.org/dc/elements/1.1/"
   xmlns:cc="http://creativecommons.org/ns#"
   xmlns:rdf="http://www.w3.org/1999/02/22-rdf-syntax-ns#"
   xmlns:svg="http://www.w3.org/2000/svg"
   xmlns="http://www.w3.org/2000/svg"
   xmlns:sodipodi="http://sodipodi.sourceforge.net/DTD/sodipodi-0.dtd"
   xmlns:inkscape="http://www.inkscape.org/namespaces/inkscape"
   sodipodi:docname="pully.svg"
   inkscape:version="0.92.3 (2405546, 2018-03-11)"
   id="svg8"
   version="1.1"
   viewBox="0 0 210 297"
   height="297mm"
   width="210mm">
  <defs
     id="defs2" />
  <sodipodi:namedview
     inkscape:document-rotation="0"
     inkscape:window-maximized="1"
     inkscape:window-y="-16"
     inkscape:window-x="5470"
     inkscape:window-height="2004"
     inkscape:window-width="3840"
     showgrid="false"
     inkscape:current-layer="layer1"
     inkscape:document-units="mm"
     inkscape:cy="0.52673252"
     inkscape:cx="7.1583519"
     inkscape:zoom="128"
     inkscape:pageshadow="2"
     inkscape:pageopacity="0.0"
     borderopacity="1.0"
     bordercolor="#666666"
     pagecolor="#ffffff"
     id="base" />
  <metadata
     id="metadata5">
    <rdf:RDF>
      <cc:Work
         rdf:about="">
        <dc:format>image/svg+xml</dc:format>
        <dc:type
           rdf:resource="http://purl.org/dc/dcmitype/StillImage" />
        <dc:title />
      </cc:Work>
    </rdf:RDF>
  </metadata>
  <g
     id="layer1"
     inkscape:groupmode="layer"
     inkscape:label="Layer 1">
    <path
       style="opacity:0.53500001;fill:#5f8bd3;fill-opacity:1;fill-rule:nonzero;stroke:none;stroke-width:1.08872712;stroke-miterlimit:4;stroke-dasharray:none;stroke-opacity:1"
       d="M 0 1116.8516 L 0 1122.5195 A 3.7797577 3.7795276 0 0 1 0.015625 1122.2285 A 3.7797577 3.7795276 0 0 1 0.03125 1122.0664 A 3.7797577 3.7795276 0 0 1 0.03125 1122.0645 A 3.7797577 3.7795276 0 0 1 0.041015625 1122.0039 A 3.7797577 3.7795276 0 0 1 0.0625 1121.8594 A 3.7797577 3.7795276 0 0 1 0.095703125 1121.6914 A 3.7797577 3.7795276 0 0 1 1.0761719 1119.8848 A 3.7797577 3.7795276 0 0 1 1.8320312 1119.2852 A 3.7797577 3.7795276 0 0 1 1.890625 1119.25 A 3.7797577 3.7795276 0 0 1 1.8925781 1119.25 A 3.7797577 3.7795276 0 0 1 3.1113281 1118.8008 A 1.8897638 1.8897638 0 0 0 3.7792969 1117.3613 A 1.8897638 1.8897638 0 0 0 3.7089844 1116.8516 L 0 1116.8516 z M 0 1122.5195 L 0 1128.1875 L 0 1128.1895 L 1.3457031 1128.1895 L 3.7089844 1128.1895 A 1.8897638 1.8897638 0 0 0 3.7792969 1127.6777 A 1.8897638 1.8897638 0 0 0 3.1074219 1126.2363 A 3.7797577 3.7795276 0 0 1 1.8417969 1125.7617 A 3.7797577 3.7795276 0 0 1 1.8320312 1125.7559 A 3.7797577 3.7795276 0 0 1 1.8222656 1125.75 A 3.7797577 3.7795276 0 0 1 0.7109375 1124.7168 A 3.7797577 3.7795276 0 0 1 0.50585938 1124.3984 A 3.7797577 3.7795276 0 0 1 0.32226562 1124.0371 A 3.7797577 3.7795276 0 0 1 0.099609375 1123.3672 A 3.7797577 3.7795276 0 0 1 0.095703125 1123.3496 A 3.7797577 3.7795276 0 0 1 0.091796875 1123.3262 A 3.7797577 3.7795276 0 0 1 0.03515625 1123.0039 A 3.7797577 3.7795276 0 0 1 0.03125 1122.9746 A 3.7797577 3.7795276 0 0 1 0.02734375 1122.9355 A 3.7797577 3.7795276 0 0 1 0 1122.5195 z "
       transform="scale(0.26458333)"
       id="rect827" />
  </g>
</svg>
